icons/mobile/24/svg/logo-google-lens-24.svg

<svg width="24" height="24" viewBox="0 0 24 24" fill="none" xmlns="http://www.w3.org/2000/svg">
<path d="M5 16.75C5 17.9637 5.88755 18.9875 6.98755 18.9875L12 19V21H7.09998C4.83625 21 3.00001 19.1638 3 16.9V14.5H5V16.75Z" fill="black"/>
<path d="M18.0088 16C19.1134 16 20.0088 16.8954 20.0088 18C20.0088 19.1046 19.1134 20 18.0088 20C16.9042 20 16.0088 19.1046 16.0088 18C16.0088 16.8954 16.9042 16 18.0088 16Z" fill="black"/>
<path d="M12.0088 10C13.6656 10 15.0088 11.3431 15.0088 13C15.0088 14.6569 13.6656 16 12.0088 16C10.3519 16 9.00879 14.6569 9.00879 13C9.00879 11.3431 10.3519 10 12.0088 10Z" fill="black"/>
<path d="M14 3L15.5 5H16.9C19.1638 5.00001 21 6.83625 21 9.09998V13H19V9.25C19 8.03625 18.1 7 17 7H7C5.9 7 5 8.03625 5 9.25V11.5H3V9.09998C3.00001 6.83625 4.83625 5.00001 7.09998 5H8.5L10 3H14Z" fill="black"/>
</svg>

<!-- This Source Code Form is subject to the terms of the Mozilla Public
   - License, v. 2.0. If a copy of the MPL was not distributed with this
   - file, You can obtain one at http://mozilla.org/MPL/2.0/. -->
<svg xmlns="http://www.w3.org/2000/svg" width="24" height="24" fill="none" viewBox="0 0 24 24">
    <path fill="#000" d="M5 16.75c0 1.214.888 2.238 1.988 2.238L12 19v2H7.1A4.1 4.1 0 0 1 3 16.9v-2.4h2zM18.009 16a2 2 0 1 1 0 4 2 2 0 0 1 0-4m-6-6a3 3 0 1 1 0 6 3 3 0 0 1 0-6" />
    <path fill="#000" d="m14 3 1.5 2h1.4A4.1 4.1 0 0 1 21 9.1V13h-2V9.25C19 8.036 18.1 7 17 7H7C5.9 7 5 8.036 5 9.25v2.25H3V9.1A4.1 4.1 0 0 1 7.1 5h1.4L10 3z" />
</svg>
